X:259
M:C|
L:1/8
K:G
c|:BG G/G/G BGdG|BG G/G/G G2gd|BG G/G/G BGd_B|A/_B/c =Fc AfcA:|
|:g2 dB GBdB|g2 dB gbaf|g2 dB GBd_B|A=fcf AfcA:|
c|B/c/d Gd BdGd|BdGd BGG_B|A/_B/c =Fc AcFc|Ac=Fc AFFc|

